X:1 
T:A_past_and_future_secret.Instr:Harp
C:Blind Guardian/Modified and transcribed by Achazia
N: 
Q:1/4=80 
V:1 
M:4/4 
L:1/8 
K:C
z8 |z8 |z8 |z8 |E8- |E8 |z8 |z4 E4- |E8- |E4 z4 |z8 |G4 E4 |^F8 |G4 E4 |^F8 |G4 E4 |^F8 |eb/c'/ ba bg a2 |e^f/g/ fe dB e2 |eb/c'/ ba bg a2 |e^f/g/ fe dB e2 |E6 D2 |E4 B,2 E2 |E6 D2 |E4 B,2 E2 |E6 D2 |
E4 B,2 E2 |E6 D2 |E4 B,2 E2 |G4 E4 |^F8 |G4 E4 |^F8 |G4 E4 |^F8 |G4 E4 |^F8 |G4 E4 |^F8 |e/c'/b/a/ ba bg a/b/c' |e/c'/b/a/ ba bg a2 |e/c'/b/a/ ba bg a/b/c' |e/c'/b/a/ ge d2 B2 |e8- |e8 |z8 |z4 [Gg][^F^f] [Ee][Dd] |
[E3e3] [Ee] [E4-B4-] |[E4B4] z4 |z8 |[Gg][^F^f] [Ee][Dd] [E3e3] [Ee] |[E8B8] |z8 |z4 G4 |E4 ^F4- |^F4 G4 |E4 ^F4- |^F4 G4 |E4 ^F4- |^F4 G4 |E4 ^F4- |^F4 G4 |E4 ^F4- |^F4 G4 |E4 ^F4- |^F4 e/c'/b/a/ ba |
bg a/b/c' e/c'/b/a/ ba |bg a2 e/c'/b/a/ ba |bg a/b/c' e/c'/b/a/ ge |d2 B2 [E,4-B,4-E4-G4-B4-e4-] |[E,8-B,8-E8-G8-B8-e8-] |[E,4B,4E4G4B4e4] z4 |]
